X: 41658
T: Upper Denton
R: hornpipe
M: 4/4
K: Dmajor
|:ag|fadf AdFA|DFAd FAdf|gfga bged|c2 A2 A2 fe|
dAFD GBAG|FAdf edfa|gfed cbag|f2 d2 d2:|
|:cd|ecfd gece|fdge afdf|gfba gfed|cdec A2 fe|
dAFD GBAG|FAdf edfa|gfed cbag|f2 d2 d2:|

